assets/svg/action_wallet_secureaccount.svg

<svg width="80" height="80" viewBox="0 0 80 80" fill="none" xmlns="http://www.w3.org/2000/svg">
<g clip-path="url(#clip0_36292_110986)">
<path d="M53.6781 25.6859H53.2078L53.2141 14.7141C53.2156 11.3062 51.8906 8.10156 49.4812 5.69062C47.0719 3.28125 43.8688 1.95312 40.4609 1.95312H35.2703C32.4625 1.95312 29.7219 2.74219 27.3438 4.23438L25.3859 5.46406C24.9096 5.76376 24.3581 5.92248 23.7953 5.92188C20.7203 5.92188 18.2172 8.42344 18.2172 11.5V25.6859H17.7547C16.5406 25.6859 15.4109 26.2313 14.6547 27.1813C13.8984 28.1313 13.6234 29.3563 13.8969 30.5391L14.325 32.3891C14.7437 34.1937 16.3297 35.4547 18.1812 35.4547H18.6797C19.2547 41.0422 21.8891 46.1797 25.9688 49.9031L26.0312 50.4609C26.1812 51.8172 26.0031 53.2078 25.5141 54.4812C25.4614 54.6179 25.3808 54.7421 25.2775 54.8459C25.1742 54.9498 25.0504 55.031 24.9141 55.0844L12.2344 60.0391C9.19219 61.2281 6.61094 63.2812 4.76875 65.9797C2.92656 68.6766 1.95312 71.8297 1.95312 75.0953V77.5C1.95312 77.8016 2.19844 78.0469 2.5 78.0469C2.80156 78.0469 3.04688 77.8016 3.04688 77.5V75.0953C3.04688 72.05 3.95469 69.1109 5.67188 66.5969C7.38906 64.0813 9.79688 62.1672 12.6328 61.0594L21.9172 57.4313C23.3094 59.9406 25.3078 62 27.725 63.4062C30.1266 64.8047 32.8906 65.5438 35.7156 65.5438C38.5422 65.5438 41.3047 64.8047 43.7062 63.4062C46.1234 62 48.1219 59.9391 49.5141 57.4313L51.0641 58.0359C51.1297 58.0609 51.1969 58.0734 51.2625 58.0734C51.3899 58.0733 51.5133 58.0287 51.6113 57.9473C51.7093 57.8659 51.7759 57.7528 51.7994 57.6275C51.8229 57.5023 51.802 57.3728 51.7402 57.2614C51.6784 57.1499 51.5796 57.0636 51.4609 57.0172L46.5156 55.0844C46.3794 55.0307 46.2557 54.9494 46.1525 54.8456C46.0492 54.7418 45.9686 54.6178 45.9156 54.4812C45.4254 53.2015 45.248 51.8231 45.3984 50.4609L45.4609 49.9016C49.5375 46.1797 52.1703 41.0422 52.7453 35.4547H53.2484C55.1016 35.4547 56.6875 34.1937 57.1047 32.3891L57.5328 30.5391C57.8062 29.3563 57.5312 28.1328 56.775 27.1813C56.0187 26.2297 54.8922 25.6859 53.6781 25.6859ZM19.3109 11.5C19.3109 9.02812 21.3219 7.01562 23.7953 7.01562C24.5637 7.01606 25.3166 6.79941 25.9672 6.39062L27.925 5.16094C30.1256 3.77883 32.6717 3.04604 35.2703 3.04688H40.4609C43.5766 3.04688 46.5063 4.26094 48.7078 6.46406C50.9109 8.66875 52.1219 11.5984 52.1203 14.7141L52.1125 26.2203L52.0672 27.2047L50.3547 26.2234C50.1916 26.1298 50.0561 25.9949 49.9617 25.8322C49.8673 25.6696 49.8175 25.4849 49.8172 25.2969V19.4906C49.8172 17.0734 47.8516 15.1078 45.4344 15.1078H25.9953C23.5781 15.1078 21.6125 17.0734 21.6125 19.4906V25.2969C21.6125 25.6781 21.4062 26.0344 21.075 26.2234L19.3562 27.2078L19.3109 26.2188V11.5ZM18.1828 34.3609C16.8422 34.3609 15.6938 33.4484 15.3906 32.1422L14.9625 30.2922C14.7641 29.4359 14.9641 28.55 15.5109 27.8625C16.0578 27.175 16.875 26.7797 17.7547 26.7797H18.2422L18.5844 34.1828C18.5875 34.2422 18.5922 34.3 18.5953 34.3594H18.1828V34.3609ZM22.9453 57.0281L24.8969 56.2656C25.3656 56.9656 25.8922 57.6109 26.4703 58.1969C25.8734 58.9375 25.7031 59.9062 25.9453 60.775C24.775 59.7234 23.7594 58.4656 22.9453 57.0281ZM44.8953 54.8734C45.0312 55.2266 45.2578 55.5359 45.5469 55.7703C43.3203 59.0219 39.6844 60.9469 35.7141 60.9469C31.7438 60.9469 28.1094 59.0219 25.8813 55.7703C26.1703 55.5359 26.3969 55.2266 26.5328 54.8734C27.0156 53.6187 27.2297 52.2625 27.1625 50.9203C28.3281 51.8453 29.5938 52.6625 30.9469 53.3516C32.4391 54.1125 34.075 54.4922 35.7125 54.4922C37.35 54.4922 38.9859 54.1125 40.4781 53.3516C41.8313 52.6625 43.0969 51.8453 44.2625 50.9203C44.1984 52.2625 44.4141 53.6187 44.8953 54.8734ZM39.9844 52.3781C37.3109 53.7406 34.1203 53.7406 31.4422 52.375C24.5422 48.8594 20.0344 41.8688 19.6766 34.1328L19.4141 28.4375L21.6187 27.1734C22.2891 26.7891 22.7063 26.0703 22.7063 25.2984V19.4922C22.7063 17.6781 24.1812 16.2031 25.9953 16.2031H45.4375C47.2516 16.2031 48.7266 17.6781 48.7266 19.4922V25.2984C48.7266 26.0719 49.1438 26.7891 49.8141 27.1734L52.0141 28.4344L51.7531 34.1297C51.3953 41.8672 46.8875 48.8594 39.9844 52.3781ZM56.4688 30.2922L56.0406 32.1422C55.7375 33.4484 54.5906 34.3609 53.2484 34.3609H52.8312C52.8344 34.3 52.8406 34.2406 52.8422 34.1797L53.1812 26.7812H53.6766C54.5547 26.7812 55.3734 27.1766 55.9203 27.8641C56.4672 28.5516 56.6672 29.4359 56.4688 30.2922Z" fill="#9A9A9A"/>
<circle cx="65" cy="67" r="11" fill="#0166FF"/>
<path fill-rule="evenodd" clip-rule="evenodd" d="M64.7367 60.386C64.8197 60.3504 64.909 60.332 64.9993 60.332C65.0897 60.332 65.179 60.3504 65.262 60.386L69.5247 62.2133C69.7646 62.3161 69.969 62.4871 70.1126 62.705C70.2563 62.923 70.3328 63.1783 70.3327 63.4393V68.0126C70.3326 68.8352 70.1151 69.6432 69.7022 70.3547C69.2892 71.0661 68.6956 71.6558 67.9813 72.064L65.33 73.5786C65.2293 73.6362 65.1153 73.6664 64.9993 73.6664C64.8834 73.6664 64.7694 73.6362 64.6687 73.5786L62.0173 72.064C61.3029 71.6557 60.7091 71.0658 60.2962 70.3541C59.8833 69.6424 59.6659 68.8341 59.666 68.0113V63.4393C59.666 63.1784 59.7426 62.9232 59.8862 62.7054C60.0299 62.4876 60.2342 62.3168 60.474 62.214L64.7367 60.386ZM67.4707 66.1373C67.5921 66.0116 67.6593 65.8432 67.6578 65.6684C67.6563 65.4936 67.5862 65.3264 67.4626 65.2027C67.339 65.0791 67.1717 65.009 66.9969 65.0075C66.8222 65.006 66.6538 65.0732 66.528 65.1946L64.3327 67.39L63.4707 66.528C63.3449 66.4065 63.1765 66.3393 63.0017 66.3408C62.827 66.3424 62.6597 66.4125 62.5361 66.5361C62.4125 66.6597 62.3424 66.8269 62.3409 67.0017C62.3394 67.1765 62.4066 67.3449 62.528 67.4706L63.8613 68.804C63.9864 68.9289 64.1559 68.9991 64.3327 68.9991C64.5095 68.9991 64.679 68.9289 64.804 68.804L67.4707 66.1373Z" fill="white"/>
<path d="M42.544 71H10.4572C9.6529 71 9 71.6529 9 72.4572V78.7805C9 79.5848 9.6529 80.2377 10.4572 80.2377H42.5428C43.3471 80.2377 44 79.5848 44 78.7805V72.4572C44 71.6529 43.3483 71 42.544 71ZM18.6363 75.62L17.7535 75.8037C17.5928 75.8349 17.364 75.8569 17.0682 75.8707C17.0151 75.8731 16.9943 75.9389 17.0347 75.9724C17.23 76.1319 17.3883 76.2787 17.512 76.4127L18.1071 77.0587C18.1614 77.1188 18.1533 77.2124 18.0886 77.2609L17.1295 77.9797C17.0624 78.0294 16.9677 78.0085 16.9272 77.9357L16.5066 77.1696C16.443 77.0552 16.3448 76.8437 16.2108 76.5352C16.1911 76.489 16.1253 76.489 16.1056 76.5352C15.96 76.8738 15.8618 77.0852 15.8098 77.1696L15.3822 77.9392C15.3418 78.0109 15.2482 78.0317 15.1823 77.9831L14.1966 77.2632C14.1284 77.2135 14.1215 77.1153 14.1804 77.0564L14.8195 76.4116C14.9893 76.2417 15.1569 76.0915 15.321 75.9632C15.3614 75.9308 15.3453 75.8673 15.2944 75.8615C15.1118 75.8395 14.8888 75.8049 14.6253 75.7552L13.7471 75.613C13.6639 75.5992 13.6119 75.5137 13.6396 75.4339L14.021 74.3165C14.0475 74.2402 14.1331 74.2032 14.207 74.2356L15.0009 74.5961C15.0887 74.6366 15.2944 74.7521 15.6168 74.9428C15.6596 74.9682 15.7127 74.9301 15.7023 74.8816C15.6341 74.5707 15.5902 74.335 15.5706 74.1732L15.4573 73.3158C15.4469 73.2337 15.5105 73.1609 15.5925 73.1609H16.7631C16.8452 73.1609 16.9087 73.2326 16.8995 73.3135L16.7967 74.172C16.7735 74.3847 16.7285 74.6239 16.6615 74.8862C16.6487 74.9336 16.6996 74.974 16.7435 74.9521C16.8498 74.8977 16.9238 74.8585 16.9642 74.8353C17.1514 74.7325 17.2947 74.6585 17.3929 74.6146L18.1845 74.2391C18.2585 74.2032 18.3474 74.2414 18.3729 74.32L18.7392 75.4409C18.7646 75.5206 18.7172 75.6038 18.6363 75.62ZM25.4577 75.62L24.5748 75.8037C24.4142 75.8349 24.1854 75.8569 23.8896 75.8707C23.8364 75.8731 23.8156 75.9389 23.856 75.9724C24.0513 76.1319 24.2097 76.2787 24.3333 76.4127L24.9284 77.0587C24.9827 77.1188 24.9746 77.2124 24.9099 77.2609L23.9508 77.9797C23.8838 78.0294 23.789 78.0085 23.7486 77.9357L23.328 77.1696C23.2644 77.0552 23.1662 76.8437 23.0321 76.5352C23.0125 76.489 22.9466 76.489 22.927 76.5352C22.7814 76.8738 22.6831 77.0852 22.6311 77.1696L22.2036 77.9392C22.1631 78.0109 22.0695 78.0317 22.0037 77.9831L21.018 77.2632C20.9498 77.2135 20.9428 77.1153 21.0018 77.0564L21.6408 76.4116C21.8107 76.2417 21.9782 76.0915 22.1423 75.9632C22.1828 75.9308 22.1666 75.8673 22.1158 75.8615C21.9332 75.8395 21.7101 75.8049 21.4467 75.7552L20.5684 75.613C20.4852 75.5992 20.4332 75.5137 20.461 75.4339L20.8423 74.3165C20.8689 74.2402 20.9544 74.2032 21.0284 74.2356L21.8222 74.5961C21.9101 74.6366 22.1158 74.7521 22.4382 74.9428C22.4809 74.9682 22.5341 74.9301 22.5237 74.8816C22.4555 74.5707 22.4116 74.335 22.3919 74.1732L22.2787 73.3158C22.2683 73.2337 22.3318 73.1609 22.4139 73.1609H23.5845C23.6665 73.1609 23.7301 73.2326 23.7208 73.3135L23.618 74.172C23.5949 74.3847 23.5498 74.6239 23.4828 74.8862C23.4701 74.9336 23.5209 74.974 23.5648 74.9521C23.6712 74.8977 23.7451 74.8585 23.7856 74.8353C23.9728 74.7325 24.1161 74.6585 24.2143 74.6146L25.0058 74.2391C25.0798 74.2032 25.1688 74.2414 25.1942 74.32L25.5605 75.4409C25.5859 75.5206 25.5374 75.6038 25.4577 75.62ZM32.279 75.62L31.3962 75.8037C31.2355 75.8349 31.0067 75.8569 30.7109 75.8707C30.6578 75.8731 30.637 75.9389 30.6774 75.9724C30.8727 76.1319 31.031 76.2787 31.1546 76.4127L31.7498 77.0587C31.8041 77.1188 31.796 77.2124 31.7313 77.2609L30.7722 77.9797C30.7051 78.0294 30.6104 78.0085 30.5699 77.9357L30.1493 77.1696C30.0857 77.0552 29.9875 76.8437 29.8535 76.5352C29.8338 76.489 29.768 76.489 29.7483 76.5352C29.6027 76.8738 29.5045 77.0852 29.4525 77.1696L29.0249 77.9392C28.9845 78.0109 28.8909 78.0317 28.825 77.9831L27.8393 77.2632C27.7711 77.2135 27.7642 77.1153 27.8231 77.0564L28.4622 76.4116C28.632 76.2417 28.7996 76.0915 28.9637 75.9632C29.0041 75.9308 28.988 75.8673 28.9371 75.8615C28.7545 75.8395 28.5315 75.8049 28.268 75.7552L27.3898 75.613C27.3066 75.5992 27.2546 75.5137 27.2823 75.4339L27.6637 74.3165C27.6902 74.2402 27.7758 74.2032 27.8497 74.2356L28.6436 74.5961C28.7314 74.6366 28.9371 74.7521 29.2595 74.9428C29.3023 74.9682 29.3554 74.9301 29.345 74.8816C29.2768 74.5707 29.2329 74.335 29.2133 74.1732L29.1 73.3158C29.0896 73.2337 29.1532 73.1609 29.2352 73.1609H30.4058C30.4879 73.1609 30.5514 73.2326 30.5422 73.3135L30.4394 74.172C30.4162 74.3847 30.3712 74.6239 30.3041 74.8862C30.2914 74.9336 30.3423 74.974 30.3862 74.9521C30.4925 74.8977 30.5665 74.8585 30.6069 74.8353C30.7941 74.7325 30.9374 74.6585 31.0356 74.6146L31.8272 74.2391C31.9011 74.2032 31.9901 74.2414 32.0156 74.32L32.3819 75.4409C32.4061 75.5206 32.3588 75.6038 32.279 75.62ZM39.1004 75.62L38.2175 75.8037C38.0569 75.8349 37.8281 75.8569 37.5323 75.8707C37.4791 75.8731 37.4583 75.9389 37.4987 75.9724C37.694 76.1319 37.8524 76.2787 37.976 76.4127L38.5711 77.0587C38.6254 77.1188 38.6173 77.2124 38.5526 77.2609L37.5935 77.9797C37.5265 78.0294 37.4317 78.0085 37.3913 77.9357L36.9706 77.1696C36.9071 77.0552 36.8089 76.8437 36.6748 76.5352C36.6552 76.489 36.5893 76.489 36.5697 76.5352C36.4241 76.8738 36.3258 77.0852 36.2738 77.1696L35.8463 77.9392C35.8058 78.0109 35.7122 78.0317 35.6464 77.9831L34.6607 77.2632C34.5925 77.2135 34.5855 77.1153 34.6445 77.0564L35.2835 76.4116C35.4534 76.2417 35.6209 76.0915 35.785 75.9632C35.8255 75.9308 35.8093 75.8673 35.7585 75.8615C35.5759 75.8395 35.3528 75.8049 35.0894 75.7552L34.2111 75.613C34.1279 75.5992 34.0759 75.5137 34.1037 75.4339L34.485 74.3165C34.5116 74.2402 34.5971 74.2032 34.6711 74.2356L35.4649 74.5961C35.5528 74.6366 35.7584 74.7521 36.0809 74.9428C36.1236 74.9682 36.1779 74.9301 36.1664 74.8816C36.0982 74.5707 36.0543 74.335 36.0346 74.1732L35.9214 73.3158C35.911 73.2337 35.9745 73.1609 36.0566 73.1609H37.2272C37.3092 73.1609 37.3728 73.2326 37.3635 73.3135L37.2607 74.172C37.2376 74.3847 37.1925 74.6239 37.1255 74.8862C37.1128 74.9336 37.1636 74.974 37.2075 74.9521C37.3139 74.8977 37.3878 74.8585 37.4283 74.8353C37.6155 74.7325 37.7587 74.6585 37.857 74.6146L38.6485 74.2391C38.7237 74.2032 38.8115 74.2414 38.8369 74.32L39.2032 75.4409C39.2275 75.5206 39.1801 75.6038 39.1004 75.62Z" fill="#E1EAF8"/>
</g>
<defs>
<clipPath id="clip0_36292_110986">
<rect width="80" height="80" fill="white"/>
</clipPath>
</defs>
</svg>

<svg xmlns="http://www.w3.org/2000/svg" width="80" height="80" fill="none"><g clip-path="url(#a)"><path fill="#9A9A9A" d="M53.678 25.686h-.47l.006-10.972a12.67 12.67 0 0 0-3.733-9.023 12.67 12.67 0 0 0-9.02-3.738h-5.19c-2.809 0-5.55.79-7.927 2.281l-1.958 1.23a3 3 0 0 1-1.59.458 5.584 5.584 0 0 0-5.579 5.578v14.186h-.462a3.94 3.94 0 0 0-3.1 1.495 3.94 3.94 0 0 0-.758 3.358l.428 1.85a3.94 3.94 0 0 0 3.856 3.066h.499a22.74 22.74 0 0 0 7.289 14.448l.062.558a8.6 8.6 0 0 1-.517 4.02 1.06 1.06 0 0 1-.6.603l-12.68 4.955a16.1 16.1 0 0 0-7.465 5.94 16.1 16.1 0 0 0-2.816 9.116V77.5a.547.547 0 0 0 1.094 0v-2.405c0-3.045.908-5.984 2.625-8.498a15 15 0 0 1 6.96-5.538l9.285-3.628c1.392 2.51 3.39 4.569 5.808 5.975a15.9 15.9 0 0 0 7.99 2.138c2.827 0 5.59-.74 7.991-2.138 2.417-1.406 4.416-3.467 5.808-5.975l1.55.605a.547.547 0 0 0 .397-1.019l-4.945-1.933a1.06 1.06 0 0 1-.6-.603 8.6 8.6 0 0 1-.518-4.02l.063-.56a22.74 22.74 0 0 0 7.284-14.446h.503a3.94 3.94 0 0 0 3.857-3.066l.428-1.85a3.94 3.94 0 0 0-.758-3.358 3.93 3.93 0 0 0-3.097-1.495M19.311 11.5a4.49 4.49 0 0 1 4.484-4.484c.769 0 1.522-.217 2.172-.625l1.958-1.23a13.8 13.8 0 0 1 7.345-2.114h5.19c3.117 0 6.046 1.214 8.248 3.417a11.59 11.59 0 0 1 3.412 8.25l-.008 11.506-.045.985-1.712-.982a1.07 1.07 0 0 1-.538-.926V19.49a4.387 4.387 0 0 0-4.383-4.383H25.995a4.387 4.387 0 0 0-4.382 4.383v5.806c0 .381-.207.737-.538.926l-1.719.985-.045-.99zm-1.128 22.86a2.854 2.854 0 0 1-2.792-2.218l-.428-1.85a2.85 2.85 0 0 1 .548-2.43 2.85 2.85 0 0 1 2.244-1.082h.487l.342 7.403.011.176zm4.762 22.668 1.952-.762q.705 1.051 1.573 1.93a2.88 2.88 0 0 0-.525 2.579 14.9 14.9 0 0 1-3-3.747m21.95-2.155c.136.354.363.663.652.897a11.85 11.85 0 0 1-9.833 5.177 11.85 11.85 0 0 1-9.833-5.177c.29-.234.516-.543.652-.897a9.7 9.7 0 0 0 .63-3.953 22.6 22.6 0 0 0 3.784 2.432c1.492.76 3.128 1.14 4.765 1.14 1.638 0 3.274-.38 4.766-1.14a22.6 22.6 0 0 0 3.785-2.432 9.8 9.8 0 0 0 .632 3.953m-4.91-2.495a9.43 9.43 0 0 1-8.543-.003 21.64 21.64 0 0 1-11.765-18.242l-.263-5.696 2.205-1.264a2.17 2.17 0 0 0 1.087-1.875v-5.806a3.29 3.29 0 0 1 3.29-3.289h19.442a3.29 3.29 0 0 1 3.289 3.29v5.805c0 .774.417 1.491 1.087 1.875l2.2 1.261-.26 5.696a21.64 21.64 0 0 1-11.77 18.248m16.484-22.086-.428 1.85a2.85 2.85 0 0 1-2.793 2.219h-.417c.003-.061.01-.12.011-.181l.34-7.399h.495c.878 0 1.696.396 2.243 1.083.547.688.747 1.572.549 2.428"/><circle cx="65" cy="67" r="11" fill="#0166FF"/><path fill="#fff" fill-rule="evenodd" d="M64.737 60.386a.67.67 0 0 1 .525 0l4.263 1.827a1.33 1.33 0 0 1 .808 1.226v4.574a4.67 4.67 0 0 1-2.352 4.051l-2.651 1.515a.67.67 0 0 1-.661 0l-2.652-1.515a4.67 4.67 0 0 1-2.351-4.053V63.44a1.33 1.33 0 0 1 .808-1.225zm2.734 5.751a.667.667 0 0 0-.943-.942l-2.195 2.195-.862-.862a.667.667 0 0 0-.943.943l1.333 1.333a.667.667 0 0 0 .943 0z" clip-rule="evenodd"/><path fill="#E1EAF8" d="M42.544 71H10.457C9.653 71 9 71.653 9 72.457v6.324c0 .804.653 1.457 1.457 1.457h32.086c.804 0 1.457-.653 1.457-1.457v-6.324c0-.804-.652-1.457-1.456-1.457m-23.908 4.62-.883.184q-.24.046-.685.067c-.053.002-.074.068-.033.101q.292.24.477.44l.595.647a.137.137 0 0 1-.018.202l-.96.719a.137.137 0 0 1-.202-.044l-.42-.766a9 9 0 0 1-.296-.635.057.057 0 0 0-.105 0 7 7 0 0 1-.296.635l-.428.77a.137.137 0 0 1-.2.043l-.985-.72a.136.136 0 0 1-.017-.207l.64-.644q.255-.255.501-.449c.04-.032.024-.096-.027-.101a10 10 0 0 1-.669-.107l-.878-.142a.137.137 0 0 1-.107-.18l.381-1.117a.14.14 0 0 1 .186-.08l.794.36q.132.06.616.347a.058.058 0 0 0 .085-.061 8 8 0 0 1-.131-.709l-.114-.857a.137.137 0 0 1 .135-.155h1.171c.082 0 .146.072.136.153l-.102.858a5 5 0 0 1-.136.714c-.012.048.039.088.082.066q.16-.081.221-.117.28-.154.429-.22l.791-.376a.136.136 0 0 1 .189.081l.366 1.12a.138.138 0 0 1-.103.18m6.822 0-.883.184q-.241.046-.685.067a.057.057 0 0 0-.034.101q.292.24.477.44l.595.647a.137.137 0 0 1-.018.202l-.96.719a.137.137 0 0 1-.201-.044l-.421-.766a9 9 0 0 1-.296-.635.057.057 0 0 0-.105 0 7 7 0 0 1-.296.635l-.427.77a.137.137 0 0 1-.2.043l-.986-.72a.136.136 0 0 1-.016-.207l.639-.644q.255-.255.501-.449c.04-.032.025-.096-.026-.101a10 10 0 0 1-.67-.107l-.878-.142a.137.137 0 0 1-.107-.18l.381-1.117a.14.14 0 0 1 .186-.08l.794.36q.133.06.616.347a.058.058 0 0 0 .086-.061 8 8 0 0 1-.132-.709l-.113-.857a.137.137 0 0 1 .135-.155h1.17c.082 0 .146.072.137.153l-.103.858a5 5 0 0 1-.135.714c-.013.048.038.088.082.066q.16-.081.22-.117.282-.154.43-.22l.79-.376a.136.136 0 0 1 .19.081l.366 1.12a.14.14 0 0 1-.103.18m6.821 0-.883.184q-.241.046-.685.067c-.053.002-.074.068-.034.101q.293.24.478.44l.595.647a.137.137 0 0 1-.019.202l-.959.719a.137.137 0 0 1-.202-.044l-.42-.766a9 9 0 0 1-.296-.635.057.057 0 0 0-.106 0 7 7 0 0 1-.296.635l-.427.77a.137.137 0 0 1-.2.043l-.986-.72a.136.136 0 0 1-.016-.207l.64-.644q.255-.255.5-.449c.041-.032.025-.096-.026-.101a10 10 0 0 1-.669-.107l-.878-.142a.137.137 0 0 1-.108-.18l.382-1.117a.14.14 0 0 1 .186-.08l.794.36q.131.06.616.347a.058.058 0 0 0 .085-.061 8 8 0 0 1-.132-.709l-.113-.857a.137.137 0 0 1 .135-.155h1.17c.083 0 .146.072.137.153l-.103.858a5 5 0 0 1-.135.714c-.013.048.038.088.082.066q.16-.081.22-.117.282-.154.43-.22l.791-.376a.136.136 0 0 1 .189.081l.366 1.12a.14.14 0 0 1-.103.18m6.821 0-.883.184q-.24.046-.685.067a.057.057 0 0 0-.033.101q.292.24.477.44l.595.647a.137.137 0 0 1-.018.202l-.96.719a.137.137 0 0 1-.202-.044l-.42-.766a9 9 0 0 1-.296-.635.057.057 0 0 0-.105 0 7 7 0 0 1-.296.635l-.428.77a.137.137 0 0 1-.2.043l-.985-.72a.136.136 0 0 1-.017-.207l.64-.644q.255-.255.501-.449c.04-.032.024-.096-.026-.101a10 10 0 0 1-.67-.107l-.878-.142a.137.137 0 0 1-.107-.18l.381-1.117a.14.14 0 0 1 .186-.08l.794.36q.132.06.616.347c.043.025.097-.013.085-.061a8 8 0 0 1-.131-.709l-.114-.857a.137.137 0 0 1 .136-.155h1.17c.082 0 .146.072.137.153l-.103.858a5 5 0 0 1-.136.714c-.012.048.039.088.083.066q.16-.081.22-.117.281-.154.429-.22l.791-.376a.136.136 0 0 1 .189.081l.366 1.12a.14.14 0 0 1-.103.18"/></g><defs><clipPath id="a"><path fill="#fff" d="M0 0h80v80H0z"/></clipPath></defs></svg>
